X:0210
M:6/8
L:1/8
Q:3/8=120
K:D
  d2d dcd|e2e efg|fed edc|ddd d2:|
g|f2f fdf|g2g gbg|f2f fed|ecA A3 |
  f2f fdf|g2g gbg|fed edc|ddd d2:|

